brandFactory_export/3.Masa/Cascos auriculares_3Masa.svg

<?xml version="1.0" encoding="UTF-8"?>
<svg width="24px" height="24px" viewBox="0 0 24 24" version="1.1" xmlns="http://www.w3.org/2000/svg" xmlns:xlink="http://www.w3.org/1999/xlink">
    <title>3.Masa/Cascos auriculares_3Masa</title>
    <g id="Symbols" stroke="none" stroke-width="1" fill="none" fill-rule="evenodd">
        <g id="3.Masa/Cascos-auriculares_3Masa" fill="#5CB615" fill-rule="nonzero">
            <path d="M21.2672269,10.8 C21.1563025,3.83529412 17.7747899,0 11.687395,0 C5.5697479,0 2.17815126,3.88571429 2.11764706,10.9512605 C0.742857143,11.7915966 0.00336134454,13.3546218 0.00336134454,15.5932773 C0.00336134454,18.887395 1.59663866,20.7798319 4.48739496,20.9109244 L4.81680672,20.9210084 L4.94453782,20.9210084 C7.27394958,20.8403361 7.75462185,18.7327731 7.75462185,15.5932773 C7.75462185,12.4436975 7.27394958,10.3394958 4.98823529,10.2554622 C4.85714286,10.2453782 4.70588235,10.2453782 4.62521008,10.2554622 C4.56470588,10.2554622 4.50420168,10.2554622 4.48739496,10.2655462 C4.18487395,10.2756303 3.90588235,10.3193277 3.63361345,10.3663866 C3.85546218,4.50756303 6.5512605,1.52941176 11.687395,1.52941176 C16.8235294,1.52941176 19.5226891,4.49747899 19.7512605,10.3361345 C19.5630252,10.3159664 19.3815126,10.2722689 19.1798319,10.2621849 C19.1193277,10.2521008 19.0588235,10.2521008 19.0184874,10.2521008 C18.887395,10.2420168 18.7159664,10.2420168 18.6789916,10.2521008 C16.3428571,10.3327731 15.8689076,12.4403361 15.8689076,15.589916 C15.8689076,17.6470588 16.0806723,19.2504202 16.8840336,20.1411765 C15.8420168,20.7226891 14.5882353,21.102521 13.1226891,21.297479 C12.9411765,20.6117647 12.4,20.2016807 11.5764706,20.1815126 C10.5210084,20.1512605 9.87226891,20.7428571 9.83865546,21.8487395 C9.81848739,22.3798319 9.94957983,22.810084 10.2319328,23.1159664 C10.5109244,23.4218487 10.9344538,23.6067227 11.4655462,23.6168067 L11.5462185,23.6168067 C12.0369748,23.6168067 12.4369748,23.4722689 12.7294118,23.1966387 C12.8201681,23.1058824 12.8806723,22.9815126 12.9411765,22.8605042 C15.1966387,22.6252101 17.0756303,21.9596639 18.5310924,20.897479 C18.5815126,20.907563 18.6117647,20.9176471 18.6588235,20.9176471 L18.810084,20.9176471 L19.1394958,20.907563 C22.0268908,20.7731092 23.6235294,18.8806723 23.6235294,15.589916 C23.6235294,13.2235294 22.7798319,11.5865546 21.2672269,10.8" id="Path"></path>
        </g>
    </g>
</svg>

<svg width="24" height="24" viewBox="0 0 24 24" xmlns="http://www.w3.org/2000/svg"><path d="M21.267 10.8C21.157 3.835 17.775 0 11.687 0 5.57 0 2.178 3.886 2.117 10.951c-1.374.84-2.114 2.404-2.114 4.642 0 3.294 1.594 5.187 4.484 5.318l.33.01h.128c2.329-.08 2.81-2.188 2.81-5.328 0-3.15-.481-5.254-2.767-5.338a2.158 2.158 0 00-.363 0c-.06 0-.12 0-.138.01-.302.01-.581.054-.853.101.221-5.858 2.917-8.837 8.053-8.837 5.137 0 7.836 2.968 8.064 8.807-.188-.02-.37-.064-.571-.074-.06-.01-.121-.01-.162-.01a1.827 1.827 0 00-.339 0c-2.336.08-2.81 2.188-2.81 5.338 0 2.057.212 3.66 1.015 4.551-1.042.582-2.296.962-3.761 1.156-.182-.685-.723-1.095-1.547-1.115-1.055-.03-1.704.56-1.737 1.667-.02.53.11.961.393 1.267.279.306.702.49 1.234.5h.08c.491 0 .891-.144 1.183-.42.091-.09.152-.214.212-.335 2.256-.236 4.135-.901 5.59-1.964.05.01.08.02.128.02h.151l.33-.01c2.887-.134 4.484-2.026 4.484-5.317 0-2.366-.844-4.003-2.357-4.79" fill="#5CB615" fill-rule="nonzero"/></svg>
